X:1
T:Dying from Home, and Lost
T:Dying from Home, and Lost
T:Sanford Miller Brown
T:Sanford Miller Brown, 1898
T:Public Domain Courtesy of the Cyber Hymnal™
T:Public Domain Courtesy of the Cyber Hymnal™
C:Sanford Miller Brown
Z:Public Domain
Z:Courtesy of the Cyber Hymnal™
%%score ( 1 2 ) 3
L:1/8
Q:1/4=76
M:6/8
K:G
V:1 treble 
V:2 treble 
V:3 bass 
V:1
 [GB] | [GB]>[G^A][GB] G2 G | [EA][EG]E [DG]3 | [Gd]>[Gd][Ge] [Gd][Gd][GB] | %4
w: 1.~Com-|pan- ion, draw nigh, they|say I must die;|Ear- ly the sum- mons has|
w: 2.~Ah!|can you not bow and|pray with me now?|Sad the re- gret, we have|
w: 3.~And|can you not sing a|song of His love,|How He came down from the|
w: 4.~A-|las! it is so, but|thus it must be;|No word of com- fort or|
w: 5.~O|peo- ple of God, who|have His blest Word,|Will you not heed the com-|
 [GB]>[DA][EG] [FA]2 G | [GB]>[G^A][GB] G2 G | [EA][EG]E [DG]3 | [Gd]>[Gd][Ge] [Gd][GB]G | %8
w: come from on high; The|way is so dark, and|yet I must go!|Oh! that such sor- row you|
w: ne- ver learned how To|come be- fore Him, who|on- ly can save,|Lead- ing in tri- umph thro’|
w: man- sions a- bove, To|bleed and to die on|Cal- va- ry’s tree,|Bring- ing sal- va- tion to|
w: prom- ise for me; To|die with- out God or|hope in His Son,|Co- vered in dark- ness, be-|
w: mand of your Lord? And|pub- lish to all of|Ad- am’s lost race|Par- don, for- give- ness, sal-|
 [GB]<[GB][FA] G3 ||"^Refrain" [Gd]>[Gd][Gd] [Gd]3 | [Ge]>[Ge][Ge] [Ge]3 | %11
w: ne- ver may know!|||
w: death and the grave.|||
w: sin- ners like me?|On- ly a prayer,|on- ly a tear,|
w: reaved and un- done.|||
w: va- tion thro’ grace?|||
 [Gd]2 [Ge] [Gd]<[Gd][GB] | [GB]<[GB][FA] [FA]3 | [GB]>[G^A][GB] G2 G | [EA][EG]E [DG]3 | %15
w: ||||
w: ||||
w: O if sis- ter and|mo- ther were here;|On- ly a song, ’twill|com- fort and cheer,|
w: ||||
w: ||||
 [Gd]>[Gd][Ge] [Gd][GB]G | [GB]2 [FA] G2 |] %17
w: ||
w: ||
w: On- ly a word from that|Book so dear.|
w: ||
w: ||
V:2
 x | x3 G2 G | x2 E x3 | x6 | x5 G | x3 G2 G | x2 E x3 | x5 G | x3 G3 || x6 | x6 | x6 | x6 | %13
 x3 G2 G | x2 E x3 | x5 G | x3 G2 |] %17
V:3
 [G,D] | [G,D]>[G,^C][G,D] [G,B,]2 [B,,D] | [C,C][C,C][C,C] [G,,G,B,]3 | %3
 [G,B,]>[G,B,][G,C] [G,B,][G,B,][G,D] | [G,D]>[F,D][E,^C] [D,D]2 [G,B,] | %5
 [G,D]>[G,^C][G,D] [G,B,]2 [B,,D] | [C,C][C,C][C,C] [G,,G,B,]3 | %7
 [G,B,]>[G,B,][G,C] [G,B,][G,D][G,B,] | [D,D]<[D,D][D,C] [G,,G,B,]3 || %9
 [G,B,]>[G,B,][G,B,] [G,B,]3 | [C,C]>[C,C][C,C] [C,C]3 | [G,B,]2 [G,C] [G,B,]<[G,B,][G,D] | %12
 [D,D]<[D,D][D,D] [D,D]3 | [G,D]>[G,^C][G,D] [G,B,]2 [B,,D] | [C,C][C,C][C,C] [G,,G,B,]3 | %15
 [G,B,]>[G,B,][G,C] [G,B,][G,D]B, | [D,D]2 [D,C] [G,,G,B,]2 |] %17

